X: 125
T: To Arms
B: C. & S. Thompson, "The Compleat Tutor for the Fife" c.1760 p.12 #5
S: http://imslp.org/wiki/The_Compleat_Tutor_for_the_Fife_(Anonymous)
Z: 2014 John Chambers <jc:trillian.mit.edu>
M: 3/4
L: 1/8
K: G
% - - - - - - - - - - - - - - - - - - - - - - - - -
|:\
G2 Bc d2 | B2 AB G2 | g2 dedc | B2 AB G2 |\
G2 Bc d2 | B2 AB G2 | g2 fgaf | g6 :|
% - - - - - - - - - - - - - - - - - - - - - - - - -
